svg/u1f445.svg

<svg viewBox="0 0 128 128" xmlns="http://www.w3.org/2000/svg">
  <path d="M86.12,154.77c0-0.09,0-0.19,0-0.28" fill="none"/>
  <g>
    <path d="M120.77,11.74c-7.7,2.94-31.25,9.63-56.77,9.65c-25.52-0.02-49.07-6.71-56.77-9.65 c-1.42-0.54-2.87,0.84-2.75,2.35C11.14,31.72,35.28,50.73,64,50.77c28.72-0.04,52.86-19.06,59.52-36.68 C123.64,12.58,122.19,11.2,120.77,11.74z" fill="#424242"/>
    <path d="M100.04,31.58c-2.73-1.56-8.23-2.65-13.18-2.91C75.62,28.06,71.95,31.83,64,31.85 c-7.95-0.02-11.62-3.79-22.86-3.18c-4.95,0.27-10.45,1.36-13.18,2.91c-5.26,3-4.34,6.61-0.53,8.88 c9.93,5.91,22.68,12.15,35.68,12.17c0.3,0,0.59-0.01,0.89-0.02c0.3,0,0.59,0.02,0.89,0.02c13-0.02,25.75-6.26,35.68-12.17 C104.38,38.19,105.29,34.58,100.04,31.58z" fill="#C41B59"/>
    <radialGradient id="SVGID_1_" cx="66.9643" cy="27.8118" gradientTransform="matrix(1 0 0 1.0804 0 -2.003)" gradientUnits="userSpaceOnUse" r="74.7506">
      <stop offset="0.053" stop-color="#E92C6C"/>
      <stop offset="1" stop-color="#F06A97"/>
    </radialGradient>
    <path d="M110.89,76.66c-3.05-30.02-8.19-37.72-13.47-40.53c-6.7-3.56-12.97-3.02-16.37-2.32 c-9.28,1.93-10.92,3.58-15.72,3.58S58,35.75,48.73,33.82c-3.4-0.71-9.67-1.25-16.37,2.32c-5.28,2.81-10.42,10.51-13.47,40.53 c-2.04,20.05,11.73,40.53,45.97,40.53c0.01,0,0.02,0,0.03,0s0.02,0,0.03,0C99.16,117.19,112.92,96.71,110.89,76.66z" fill="url(#SVGID_1_)"/>
    <linearGradient id="SVGID_2_" gradientUnits="userSpaceOnUse" x1="64.8851" x2="64.8851" y1="39.3546" y2="88.9513">
      <stop offset="0" stop-color="#C41B59"/>
      <stop offset="1" stop-color="#C41B59" stop-opacity="0"/>
    </linearGradient>
    <path d="M64,33.3c-3.04,0-22.45-1.12-16.55,0.31c6.95,1.69,9.34,5.7,11.88,11.55 c4.67,10.74,3.44,38.04,5.3,38.23c1.86,0.2,3.59-14.65,3.98-32.63c0.3-13.83,9.26-17.19,14.81-17.41 C83.43,33.36,67.04,33.3,64,33.3z" fill="url(#SVGID_2_)"/>
    <radialGradient id="SVGID_3_" cx="65.0723" cy="72.2201" gradientTransform="matrix(0.9546 0 0 0.5017 2.9166 34.3366)" gradientUnits="userSpaceOnUse" r="73.4363">
      <stop offset="0.6723" stop-color="#FF9CBD" stop-opacity="0"/>
      <stop offset="1" stop-color="#FF9CBD"/>
    </radialGradient>
    <path d="M22.26,78.08c0-15.55,6.61,7.48,42.6,7.48s42.12-21.76,42.12-6.22 s-19.57,29.39-42.12,29.39S22.26,93.62,22.26,78.08z" fill="url(#SVGID_3_)" opacity="0.75"/>
  </g>
</svg>

<svg viewBox="0 0 128 128" xmlns="http://www.w3.org/2000/svg">
  <defs>
    <radialGradient id="SVGID_1_" cx="66.9643" cy="25.957857" gradientTransform="matrix(1 0 0 1.0804 0 0)" gradientUnits="userSpaceOnUse" r="74.7506">
      <stop offset="0.053" stop-color="#E92C6C"/>
      <stop offset="1" stop-color="#F06A97"/>
    </radialGradient>
    <linearGradient id="SVGID_2_" gradientUnits="userSpaceOnUse" x1="64.8851" x2="64.8851" y1="39.3546" y2="88.9513">
      <stop offset="0" stop-color="#C41B59"/>
      <stop offset="1" stop-color="#C41B59" stop-opacity="0"/>
    </linearGradient>
    <radialGradient id="SVGID_3_" cx="68.127611" cy="140.660602" gradientTransform="matrix(0.9546 0 0 0.5017 0 0)" gradientUnits="userSpaceOnUse" r="73.4363">
      <stop offset="0.6723" stop-color="#FF9CBD" stop-opacity="0"/>
      <stop offset="1" stop-color="#FF9CBD"/>
    </radialGradient>
  </defs>
  <path d="M120.77,11.74 C113.07,14.68 89.52,21.37 64,21.39 C38.48,21.37 14.93,14.68 7.23,11.74 C5.81,11.2 4.36,12.58 4.48,14.09 C11.14,31.72 35.28,50.73 64,50.77 C92.72,50.73 116.86,31.71 123.52,14.09 C123.64,12.58 122.19,11.2 120.77,11.74 Z" fill="#424242"/>
  <path d="M100.04,31.58 C97.31,30.02 91.81,28.93 86.86,28.67 C75.62,28.06 71.95,31.83 64,31.85 C56.05,31.83 52.38,28.06 41.14,28.67 C36.19,28.94 30.69,30.03 27.96,31.58 C22.7,34.58 23.62,38.19 27.43,40.46 C37.36,46.37 50.11,52.61 63.11,52.63 C63.41,52.63 63.7,52.62 64,52.61 C64.3,52.61 64.59,52.63 64.89,52.63 C77.89,52.61 90.64,46.37 100.57,40.46 C104.38,38.19 105.29,34.58 100.04,31.58 Z" fill="#C41B59"/>
  <path d="M110.89,76.66 C107.84,46.64 102.7,38.94 97.42,36.13 C90.72,32.57 84.45,33.11 81.05,33.81 C71.77,35.74 70.13,37.39 65.33,37.39 C60.53,37.39 58,35.75 48.73,33.82 C45.33,33.11 39.06,32.57 32.36,36.14 C27.08,38.95 21.94,46.65 18.89,76.67 C16.85,96.72 30.62,117.2 64.86,117.2 C64.87,117.2 64.88,117.2 64.89,117.2 C64.9,117.2 64.91,117.2 64.92,117.2 C99.16,117.19 112.92,96.71 110.89,76.66 Z" fill="url(#SVGID_1_)"/>
  <path d="M64,33.3 C60.96,33.3 41.55,32.18 47.45,33.61 C54.4,35.3 56.79,39.31 59.33,45.16 C64,55.9 62.77,83.2 64.63,83.39 C66.49,83.59 68.22,68.74 68.61,50.76 C68.91,36.93 77.87,33.57 83.42,33.35 C83.43,33.36 67.04,33.3 64,33.3 Z" fill="url(#SVGID_2_)"/>
  <path d="M22.26,78.08 C22.26,62.53 28.87,85.56 64.86,85.56 C100.85,85.56 106.98,63.8 106.98,79.34 C106.98,94.88 87.41,108.73 64.86,108.73 C42.31,108.73 22.26,93.62 22.26,78.08 Z" fill="url(#SVGID_3_)" opacity="0.75"/>
</svg>
